X:2292
L:1/8
M:2/4
K:C
"C" GE E/G/G/c/ |"G7" BD F2 | BD !>!F2 |"C" AC !>!E2 | GF E/G/G/c/ |"G7" BD F2 | BA F>D | 
"C" CEC z ::[K:G]"G" dd BB |"D7" cA F/A/A/c/ |"G" BG dB |"D7" c/d/c/B/ A2 | dd AA | 
"G" BG D/G/G/B/ |1"D7" Ad dA |"G" B/c/B/A/ G2 :|2"D7" AD dF |"G" G3 z ||[K:C]"C" GE E/G/G/c/ | 
"G7" BD F2 | BD !>!F2 |"C" AC !>!E2 | GE E/G/G/c/ |"G7" BD F2 | cB e>d |"C" c3 z || 
[K:F]"F" AF C/A,/C/F/ | AF C/A,/C/F/ | AF c2 |"C7" EC G2 |"F" AF C/A,/C/F/ | AF C/A,/C/F/ | 
"C7" AG cE/G/ |"F" F2 z2 ||"Bb" B/A/B/c/ dB/d/ |"F" cA F/A/A/c/ |"C7" BG E/G/G/B/ |"F" AA/c/ F2 | 
"Bb" B/A/B/c/ dB/d/ |"F/C" cA F/A/A/c/ |"C7" BG E/G/B/E/ |"F" F3 z |]

